X: 11
T: Bunker Hill
Z: Erik-Fiddler
S: https://thesession.org/tunes/207#setting46112
R: reel
M: 4/4
L: 1/8
K: Bmix
|:EC (3C/C/C/C [F2B,2] FB,|C/D/E FG A2GA|FGFE CE (3E/E/E/E|FGAF B2 AF|
EC (3C/C/C/C [F2B,2] FB,|C/D/E FG A/B/A GA|BGAF GBEG|FGAF B2 AF:|
|:EA (3A/A/A/A cAAB|(3A/A/A/A AB AGFE|FB (3B/B/B/B dBBc|[B2F2] Bc BAGF|
C/D/E FG AFBF|AFBG A/B/A GA|BGAF GBEB|1FGAF B2 AF:|2FGAF Bdfe||
|:dB (3B/B/B/B dBfB|dfBd f2ed|ec (3c/c/c/c ecgc|egce gefe|
dB (3B/B/B/B BAFG|AFBF A/B/A GA|BGAF GBEG|1FGAF Bdfe:|2FGAF B2 AF||

